X:25
T:Oh Dear What Can the Matter Be
S:John Moore's Book 1
Z:Transcribed by Paul Barber-Riley  April 2016
M:6/8
L:1/8
K:G
%%VWML: Moore1-4493-p16-0
F:http://www.vwml.org/record/Moore1/4493/p16
d3d3|dBg dBG|c3c3|cAB cBA|
d3d3|dBg dBG|FGc BcB|(G3G2):|
d|dBc dBc|dBg dBG|cAB cAB|cAB cBA|
dBc dBc|dBg dBG|EGc BcA|(G3G2):|
